icon/ir/3d-three-pts-box.svg

<svg viewBox="0 0 24 24" stroke-width="1.5" fill="none" xmlns="http://www.w3.org/2000/svg" height="1em" width="1em">
  <path d="M12 23C12.5523 23 13 22.5523 13 22C13 21.4477 12.5523 21 12 21C11.4477 21 11 21.4477 11 22C11 22.5523 11.4477 23 12 23Z" fill="currentColor" stroke="currentColor" stroke-linecap="round" stroke-linejoin="round"/>
  <path d="M3 8C3.55228 8 4 7.55228 4 7C4 6.44772 3.55228 6 3 6C2.44772 6 2 6.44772 2 7C2 7.55228 2.44772 8 3 8Z" fill="currentColor" stroke="currentColor" stroke-linecap="round" stroke-linejoin="round"/>
  <path d="M3 18C3.55228 18 4 17.5523 4 17C4 16.4477 3.55228 16 3 16C2.44772 16 2 16.4477 2 17C2 17.5523 2.44772 18 3 18Z" fill="currentColor" stroke="currentColor" stroke-linecap="round" stroke-linejoin="round"/>
  <path d="M21 7.35304L21 16.647C21 16.8649 20.8819 17.0656 20.6914 17.1715L12.2914 21.8381C12.1102 21.9388 11.8898 21.9388 11.7086 21.8381L3.30861 17.1715C3.11814 17.0656 3 16.8649 3 16.647L2.99998 7.35304C2.99998 7.13514 3.11812 6.93437 3.3086 6.82855L11.7086 2.16188C11.8898 2.06121 12.1102 2.06121 12.2914 2.16188L20.6914 6.82855C20.8818 6.93437 21 7.13514 21 7.35304Z" stroke="currentColor" stroke-linecap="round" stroke-linejoin="round"/>
  <path d="M3.52844 7.29363L11.7086 11.8382C11.8898 11.9388 12.1102 11.9388 12.2914 11.8382L20.5 7.27783" stroke="currentColor" stroke-linecap="round" stroke-linejoin="round"/>
  <path d="M12 21L12 12" stroke="currentColor" stroke-linecap="round" stroke-linejoin="round"/>
</svg>

<svg width="24" height="24" stroke-width="1.5" fill="none" xmlns="http://www.w3.org/2000/svg"><path d="M12 23a1 1 0 1 0 0-2 1 1 0 0 0 0 2ZM3 8a1 1 0 1 0 0-2 1 1 0 0 0 0 2ZM3 18a1 1 0 1 0 0-2 1 1 0 0 0 0 2Z" fill="currentColor" stroke="currentColor" stroke-linecap="round" stroke-linejoin="round"/><path d="M21 7.353v9.294a.6.6 0 0 1-.309.525l-8.4 4.666a.6.6 0 0 1-.582 0l-8.4-4.666A.6.6 0 0 1 3 16.647V7.353a.6.6 0 0 1 .309-.524l8.4-4.667a.6.6 0 0 1 .582 0l8.4 4.667a.6.6 0 0 1 .309.524Z" stroke="currentColor" stroke-linecap="round" stroke-linejoin="round"/><path d="m3.528 7.294 8.18 4.544a.6.6 0 0 0 .583 0l8.209-4.56M12 21v-9" stroke="currentColor" stroke-linecap="round" stroke-linejoin="round"/></svg>
